X:1
T:Title
T:Come to Me
T:Claude-Michel Schönberg
C:Composer
L:1/8
M:4/4
K:C
V:1 treble nm="Piano" snm="Pno."
V:1
 ^G2 B2 G2 B2 | ^A2 ^D2 ^F4 | E2 ^G2 E2 G2 | ^F2 ^D6 | ^D2 ^C2 B,2 ^G,2 | B,2 ^D4 z2 | %6
 ^G2 B2 G2 B2 | ^A2 ^D2 ^F4 | E2 ^G2 E2 G2 | ^F2 ^D6 | ^D2 ^C2 B,2 ^G,2 | B,2 ^D4 z2 | C2 FF FGFG | %13
 c2 AG F4 | C2 FF FGFG | F2 D2 C4 | C2 DD DEFG | AF A2 F_BAG | F_BAG FBAG | F2 D2 C4 | C2 FF FGFG | %21
 c2 AG F4 | C2 FF FGFG | F2 D2 C4 | C2 DD DEFG | AF A2 F_BAG | F_BAG FBAG | F2 c6 | c2 ff fgfg | %29
 a2 a6 |] %30

